X: 21448
T: Kevin Loughlin's
R: jig
M: 6/8
K: Dmajor
|:A|d2f edb|bad' baf|ded baf|def efA|
d2f edb|bad' baf|gbd' afd|Ace d2:|
|:e|fgf dfa|gag dgb|f2a afa|baf ede|
f2 d dc=c|B/c/d B GBd|afa baf|Ace d2:|

